packages/ffe-icons/icons/open/300/md/window.svg

<svg xmlns="http://www.w3.org/2000/svg" height="24" viewBox="0 -960 960 960" width="24"><path d="M212.309-140.001q-29.923 0-51.115-21.193-21.193-21.192-21.193-51.115v-535.382q0-29.923 21.193-51.115 21.192-21.193 51.115-21.193h535.382q29.923 0 51.115 21.193 21.193 21.192 21.193 51.115v535.382q0 29.923-21.193 51.115-21.192 21.193-51.115 21.193H212.309Zm297.69-310V-200h237.692q5.385 0 8.847-3.462 3.462-3.462 3.462-8.847v-237.692H509.999Zm0-59.998H760v-237.692q0-5.385-3.462-8.847-3.462-3.462-8.847-3.462H509.999v250.001Zm-59.998 0V-760H212.309q-5.385 0-8.847 3.462-3.462 3.462-3.462 8.847v237.692h250.001Zm0 59.998H200v237.692q0 5.385 3.462 8.847 3.462 3.462 8.847 3.462h237.692v-250.001Z"/></svg>

<svg xmlns="http://www.w3.org/2000/svg" height="24" viewBox="0 -960 960 960" width="24"><path d="M212.31-140q-29.92 0-51.12-21.19Q140-182.39 140-212.31v-535.38q0-29.92 21.19-51.12Q182.39-820 212.31-820h535.38q29.92 0 51.12 21.19Q820-777.61 820-747.69v535.38q0 29.92-21.19 51.12Q777.61-140 747.69-140H212.31ZM510-450v250h237.69q5.39 0 8.85-3.46t3.46-8.85V-450H510Zm0-60h250v-237.69q0-5.39-3.46-8.85t-8.85-3.46H510v250Zm-60 0v-250H212.31q-5.39 0-8.85 3.46t-3.46 8.85V-510h250Zm0 60H200v237.69q0 5.39 3.46 8.85t8.85 3.46H450v-250Z"/></svg>
